X:9
T:Vanhall’s Minuet.2voices. JClw.09
M:3/4
L:1/8
Q:1/4=140
S:J.Clews MS,Stoke-upon-Tern,Shrops.1832
A:N. Shropshire
N:The Da Capo at the end of line 2 is redundant.
Z:Neil Brookes 2006
K:D
[V:1]|:A2|d4fe|edd2A2|e4gf|fee2fg|a3g/f/ e/d/c/B/|\
A2g2f2|{f}e2d2c2|{c}d4:|
[V:2]|:D2|F4AG|GFF2d2|c4ed|dcc2c2|d2F2G2|\
F2e2d2|{A}G2F2E2|{E}F4:|
%
[V:1] fg|a2f2d2|ceg4|f/a/b/a/ b/a/b/a/ g/f/e/d/|c/d/e/f/g4|\
(3fga (3bag (3fed|d2″D.C.”c2||A2|d4fe|edd2A2|
[V:2] de|f2d2A2|G2e2c2|d2d2F2|G2e2c2|\
(3def (3gfe (3dcd|F2″D.C.”E2||D2|F4AG|GFF2d2|
%
[V:1] e4gf|fee2fg|a3g/f/ e/d/c/B/|A2g2f2|{f}e2d2c2|{c}d4|]
[V:2] c4ed|dcc2c2|d2F2G2|F2e2d2|{A}G2F2E2|{E}F4|]

